X:1
T: Dr. Alastair MacFadyen
C:Muriel A Johnstone
R:Strathspey
%Q: 128
K:D
M:4/4
L:1/16
|:de|fd3 e3c dA3 A3F|G3A BAGF Ee3 e3g|fd3 e3c dA3 ((3Adc) |((3Bed) ((3cfe) d4 d3g|
fd3 e3c dA3 A3F|G3A BAGF Ee3 e3g|fd3 e3c dA3 ((3Adc) |((3Bed) ((3cfe) d4 d2:|
|:AG|FA3 A3B Af3 f3d|cdef edcB cA3 A3G|FA3 A3B A2f2 d2B2|ABcd AGFE FD3 D2AG|
FA3 A3B Af3 f3d|cdef edcB cA3 A3B|((3GDG) ((3FDF) ((3ECE) ((3Dfd) |ABde A3G FD3 D2:|
